X:4
T:The Mountain Top / Peeler Boland's (as taught)
R:reel
M:C|
L:1/8
Z:Julie Ross
D:The Mountain Top: Tommy McCarthy "Sporting Nell"
D:Peeler Boland's: Mike & Mary Rafferty "The Road from Ballinakill"
K:G
"The Mountain Top (based loosely on Tommy McCarthy's version)"
BGAG EGDE|G2Bd edgd|BGAG EGD2|BdAd BGGA|
BGAG EGDE|G2Bd edgd|B2AG EGD2|BdAd BGG2||
|Bddg edBA|Bdef gfed|Bdd^c d2ge|dBAc BGGA|
Bddg edBA|Bdef g3a|bgaf gfed|egfa gedc||
K:G
"Peeler Boland's"
B |: cAAG A2ed | cAAB dBGB | cAAG A2ed | cABc dBGB |
cAAG A2ed | cAAf g2fg | afge fded | cABc dBGB :|
|: E2AA2BA2 | eABc dBG2 | E2AA2BA2 | BABc dBG2 |
E2AA2BA2 | edef g2fg | afge fded | cABc dBGB :|
